lg/phalcon.svg

<svg viewBox="0 0 256 292" version="1.1" xmlns="http://www.w3.org/2000/svg" preserveAspectRatio="xMidYMid" height="1em" width="1em">
  <g>
    <path d="M203.573531,139.85597 L185.825037,104.10178 L191.483981,128.023648 L203.573531,139.85597 Z" fill="#73B08F"/>
    <path d="M182.744685,91.5718826 L196.445333,149.447359 L152.388348,102.889756 L88.1833618,42.9564729 L71.7963155,0 L182.744685,91.5718826 Z" fill="#C5E4D3"/>
    <path d="M155.917143,104.324072 L98.2232384,76.6641846 L66.7270865,42.8278208 L62.6060728,20.5387846 L155.917143,104.324072 Z" fill="#76C39B"/>
    <path d="M200.050714,151.984676 L145.586642,138.100739 L40.8480608,77.8496676 L0,21.7899753 L157.107886,105.093631 L200.050714,151.984676 Z" fill="#000000"/>
    <path d="M143.090857,136.501153 L143.090857,138.109887 L136.056191,151.247954 L99.3196049,139.182384 L31.0572621,87.9708193 L4.48185922,49.8972965 L34.9654096,68.129688 L39.6552009,75.3690191 L143.090857,136.501153 Z" fill="#73B08F"/>
    <path d="M44.121314,98.0093387 L39.0396997,97.4187853 L21.2540639,90.9227038 L57.6722521,124.288949 L67.2708505,131.67086 L105.382915,144.367747 L44.121314,98.0093387 Z" stroke="#000000" stroke-width="1.12244904" fill="#000000"/>
    <path d="M193.432742,149.497171 L193.432742,149.497171 L192.661066,179.067331 L189.831608,174.233765 L173.369235,173.096438 L135.300032,151.203132 L144.045665,135.84941 L193.432742,149.497171 Z" fill="#76C39B"/>
    <path d="M38.4981481,116.924238 L85.8847635,153.13742 L135.104021,169.519589 L173.065682,172.968453 L135.365825,151.125575 L38.4981481,116.924238 Z" fill="#C5E4D3"/>
    <path d="M61.4766266,145.772128 L94.4013587,164.035068 L132.727788,167.893431 L86.427402,153.488869 L78.9678909,148.858816 L61.4766266,145.772128 Z" fill="#76C39B"/>
    <path d="M134.641623,167.151704 L80.7684577,162.452545 L108.521303,173.103947 L126.751109,175.610158 L134.641623,167.151704 Z" fill="#73B08F"/>
    <path d="M122.438812,175.456973 L117.808773,176.139578 L96.2019254,179.211306 L106.748124,172.043949 L122.438812,175.456973 Z" fill="#76C39B"/>
    <path d="M156.946049,180.124768 L155.891143,181.995156 L77.036564,227.686322 L61.4766266,248.260699 L67.0149077,226.083118 L84.1572112,202.569532 L133.210557,169.436768 L156.946049,180.124768 Z" fill="#76C39B"/>
    <path d="M70.7367044,202.618716 L56.8465877,220.881656 L56.8465877,212.907699 L70.7367044,202.618716 Z" fill="#000000"/>
    <path d="M185.20157,183.326885 L132.470564,219.081075 L128.097749,211.621578 L109.834812,250.205226 L113.950405,255.86417 L117.0371,291.61836 L94.9158042,250.719686 L112.921514,206.477079 L156.906876,179.211306 L185.20157,183.326885 Z" fill="#C5E4D3"/>
    <path d="M112.921514,205.705418 L77.6817698,224.740019 L76.6528644,250.976901 L87.4562932,286.216646 L87.4562932,268.210936 L112.921514,205.705418 Z" fill="#000000"/>
    <path d="M69.1933676,256.121386 L69.7078132,257.921967 L74.3378521,277.471014 L68.1644621,273.61265 L69.1933676,256.121386 Z" fill="#73B08F"/>
    <path d="M133.384043,216.570559 L128.657059,210.736648 L108.914943,248.126706 L140.33549,289.229251 L132.549871,270.931973 L133.384043,216.570559 Z" fill="#73B08F"/>
    <path d="M137.100603,214.337781 L132.985012,216.496176 L132.727788,261.283018 L140.44452,277.471014 L154.84908,272.07502 L154.334634,261.283018 L138.643949,245.904397 L137.100603,214.337781 Z" fill="#76C39B"/>
    <path d="M208.129058,182.777915 L184.207188,189.465751 L158.227536,211.58704 L144.080189,211.072594 L184.978864,183.549591 L208.129058,182.777915 Z" fill="#000000"/>
    <path d="M198.296885,185.732856 L190.800333,171.941063 L123.331329,166.659097 L153.585284,179.277122 L198.296885,185.732856 Z" fill="#73B08F"/>
    <path d="M158.964673,210.730612 L162.308591,218.6168 L169.510872,223.783638 L170.796993,223.783638 L170.282547,232.213718 L148.161259,241.459608 L140.701745,224.327502 L138.643949,214.265786 L145.331786,208.827031 L158.964673,210.730612 Z" fill="#73B08F"/>
    <path d="M170.796993,255.092495 L157.421336,249.176335 L152.276838,259.722534 L154.077419,262.294776 L153.820189,273.61265 L163.594712,284.673295 L162.051375,263.838127 L164.366387,262.809221 L172.083114,270.268732 L168.481981,261.78033 L160.250794,257.407521 L162.051375,254.320819 L170.796993,258.179183 L170.796993,255.092495 Z" fill="#000000"/>
    <path d="M174.140911,211.107118 L168.996426,223.453898 L170.025332,234.000097 L180.571531,247.118538 L179.28541,226.02614 L180.828746,224.997249 L189.059933,232.19953 L185.716015,224.225574 L176.455937,219.338305 L177.999274,216.766063 L187.516582,220.881656 L187.259352,217.280508 L174.140911,211.107118 Z" fill="#000000"/>
    <path d="M221.727421,156.575557 L193.175526,149.887722 L193.175526,176.639064 L196.51943,182.555224 L221.727421,182.812439 L245.649291,191.043626 L244.877615,187.699708 L230.215837,179.211306 L200.892253,167.636202 L217.611842,167.378986 L201.406699,159.919475 L221.727421,156.575557 Z" fill="#C5E4D3"/>
    <path d="M255.030218,181.029135 L244.226789,163.53787 L219.533243,156.078359 L199.984197,159.679507 L215.41765,167.396234 L201.013088,167.910679 L228.021646,179.485784 L243.455113,186.945295 L255.030218,181.029135 Z" fill="#73B08F"/>
    <path d="M240.95192,201.84704 L245.067513,195.673665 L241.980825,187.699708 L254.842036,180.497427 L255.099266,195.159219 L247.382539,202.10427 L240.95192,201.84704 Z" fill="#000000"/>
    <path d="M251.264829,178.835515 L242.436634,174.715703 L237.728265,178.835515" stroke="#000000" stroke-width="0.30000001"/>
  </g>
</svg>

<svg viewBox="0 0 256 292" xmlns="http://www.w3.org/2000/svg" preserveAspectRatio="xMidYMid" height="1em" width="1em">
  <path d="m203.574 139.856-17.749-35.754 5.659 23.922 12.09 11.832Z" fill="#73B08F"/>
  <path d="m182.745 91.572 13.7 57.875-44.057-46.557-64.205-59.934L71.796 0l110.949 91.572Z" fill="#C5E4D3"/>
  <path d="m155.917 104.324-57.694-27.66-31.496-33.836-4.12-22.29 93.31 83.786Z" fill="#76C39B"/>
  <path d="M200.05 151.985 145.588 138.1 40.848 77.85 0 21.79l157.108 83.304 42.943 46.89Z"/>
  <path d="M143.09 136.501v1.609l-7.034 13.138-36.736-12.066-68.263-51.211L4.482 49.897 34.965 68.13l4.69 7.239 103.436 61.132Z" fill="#73B08F"/>
  <path d="m44.121 98.01-5.081-.591-17.786-6.496 36.418 33.366 9.599 7.382 38.112 12.697L44.12 98.009Z" stroke="#000" stroke-width="1.122"/>
  <path d="m193.433 149.497-.772 29.57-2.83-4.833-16.462-1.138-38.069-21.893 8.746-15.354 49.387 13.648Z" fill="#76C39B"/>
  <path d="m38.498 116.924 47.387 36.213 49.219 16.383 37.962 3.448-37.7-21.842-96.868-34.202Z" fill="#C5E4D3"/>
  <path d="M61.477 145.772 94.4 164.035l38.327 3.858-46.3-14.404-7.46-4.63-17.491-3.087Z" fill="#76C39B"/>
  <path d="m134.642 167.152-53.874-4.7 27.753 10.652 18.23 2.506 7.89-8.458Z" fill="#73B08F"/>
  <path d="m122.439 175.457-4.63.683-21.607 3.071 10.546-7.167 15.69 3.413Zm34.507 4.668-1.055 1.87-78.854 45.691-15.56 20.575 5.538-22.178 17.142-23.513 49.054-33.133 23.735 10.688Z" fill="#76C39B"/>
  <path d="m70.737 202.619-13.89 18.263v-7.974l13.89-10.29Z"/>
  <path d="M185.202 183.327 132.47 219.08l-4.373-7.46-18.263 38.584 4.115 5.66 3.087 35.753-22.121-40.898 18.006-44.243 43.985-27.266 28.295 4.116Z" fill="#C5E4D3"/>
  <path d="m112.922 205.705-35.24 19.035-1.03 26.237 10.804 35.24V268.21l25.466-62.506Z"/>
  <path d="m69.193 256.121.515 1.801 4.63 19.549-6.174-3.858 1.03-17.492Zm64.191-39.551-4.727-5.833-19.742 37.39 31.42 41.102-7.785-18.297.834-54.361Z" fill="#73B08F"/>
  <path d="m137.1 214.338-4.115 2.158-.257 44.787 7.717 16.188 14.404-5.396-.514-10.792-15.691-15.379-1.543-31.566Z" fill="#76C39B"/>
  <path d="m208.13 182.778-23.923 6.688-25.98 22.121-14.147-.514 40.899-27.523 23.15-.772Z"/>
  <path d="M198.297 185.733 190.8 171.94l-67.469-5.282 30.254 12.618 44.712 6.456Zm-39.332 24.997 3.344 7.887 7.202 5.167h1.286l-.514 8.43-22.122 9.246-7.46-17.132-2.057-10.062 6.688-5.439 13.633 1.904Z" fill="#73B08F"/>
  <path d="m170.797 255.092-13.376-5.916-5.144 10.547 1.8 2.572-.257 11.318 9.775 11.06-1.544-20.835 2.315-1.029 7.717 7.46-3.601-8.489-8.231-4.372 1.8-3.087 8.746 3.858v-3.087Zm3.343-43.985-5.144 12.347 1.03 10.546 10.546 13.119-1.287-21.093 1.544-1.029 8.23 7.203-3.343-7.974-9.26-4.888 1.543-2.572 9.518 4.116-.258-3.601-13.118-6.174Z"/>
  <path d="m221.727 156.576-28.551-6.688v26.751l3.343 5.916 25.208.257 23.922 8.232-.771-3.344-14.662-8.489-29.324-11.575 16.72-.257-16.205-7.46 20.32-3.343Z" fill="#C5E4D3"/>
  <path d="m255.03 181.03-10.803-17.492-24.694-7.46-19.549 3.602 15.434 7.716-14.405.515 27.009 11.575 15.433 7.46 11.575-5.917Z" fill="#73B08F"/>
  <path d="m240.952 201.847 4.116-6.173-3.087-7.974 12.861-7.203.257 14.662-7.716 6.945-6.431-.257Z"/>
  <path d="m251.265 178.836-8.828-4.12-4.709 4.12" stroke="#000" stroke-width=".3"/>
</svg>
